dapp/src/images/panther-logo.svg

<svg fill="none" height="48" viewBox="0 0 48 48" width="48" xmlns="http://www.w3.org/2000/svg" xmlns:xlink="http://www.w3.org/1999/xlink"><linearGradient id="a" gradientUnits="userSpaceOnUse" x1="23.1235" x2="21.8918" y1=".208486" y2="47.7671"><stop offset="0" stop-color="#ffdfbd"/><stop offset="1" stop-color="#d0a7a8"/></linearGradient><linearGradient id="b" gradientUnits="userSpaceOnUse" x1="191.206" x2="25.263" y1="74.7294" y2="43.4275"><stop offset="0" stop-color="#7484a0"/><stop offset="1" stop-color="#5f6c85"/></linearGradient><linearGradient id="c" gradientUnits="userSpaceOnUse" x1="25.2629" x2="25.263" y1="-9.28079" y2="43.4275"><stop offset="0" stop-color="#fff"/><stop offset="1" stop-color="#fff" stop-opacity="0"/></linearGradient><circle cx="23.994" cy="24.015" fill="#131621" r="22.9091" stroke="url(#a)" stroke-width="1.79478"/><path d="m7.12343 14.4541c.0915-.0333.183-.0582.2246-.0665 2.86987-.6239 8.31017-1.6554 11.58767-1.3227.2662.025.5075-.158.549-.4159.1165-.7404.4243-1.9133.6073-2.0796.1248-.1082.3411-.3411.8485 0 .4326.2911 2.3209 2.1545 2.8948 2.7284.1082.1082.2496.1581.3993.1414.4243-.0415 1.3476-.0998 1.9881.025.8485.1664 6.6382 3.4023 7.8361 4.7665.9067 1.0398.9233 1.8717.8818 2.2211-.0167.1164.0083.2329.0748.3327l2.6786 4.2591c.0749.1164.0998.2579.0582.391-.0832.3327-.2995.9483-.7819 1.3476-.1165.0915-.1914.2329-.1997.3826-.0166.4492-.0832 1.3726-.3327 1.6304-.2662.2662-1.1313 1.0315-1.5223 1.3726-.1165.0998-.1747.2495-.1664.3993.025.549.0499 1.88-.3577 2.1462-.5074.341-3.4022.5074-3.7433 0l-2.9364-2.9115c-1.0898-.6405-2.3542-1.0066-3.7018-1.0066-2.1961 0-4.1676.965-5.5068 2.4956-.183.1747-.3411.366-.4576.5656-.0083.0084-.0083.0167-.0166.025-.8485 1.1979-1.3476 2.6536-1.3476 4.2258 0 4.0428 3.2775 7.3203 7.3203 7.3203 10.7226 0 19.4071-8.6928 19.4071-19.4071 0-10.7142-8.6845-19.41542-19.3988-19.41542-7.2454 0-13.5592 3.96794-16.88657 9.84912-.00832 0-.00832 0 0 0z" fill="url(#b)"/><path d="m7.12343 14.4541c.0915-.0333.183-.0582.2246-.0665 2.86987-.6239 8.31017-1.6554 11.58767-1.3227.2662.025.5075-.158.549-.4159.1165-.7404.4243-1.9133.6073-2.0796.1248-.1082.3411-.3411.8485 0 .4326.2911 2.3209 2.1545 2.8948 2.7284.1082.1082.2496.1581.3993.1414.4243-.0415 1.3476-.0998 1.9881.025.8485.1664 6.6382 3.4023 7.8361 4.7665.9067 1.0398.9233 1.8717.8818 2.2211-.0167.1164.0083.2329.0748.3327l2.6786 4.2591c.0749.1164.0998.2579.0582.391-.0832.3327-.2995.9483-.7819 1.3476-.1165.0915-.1914.2329-.1997.3826-.0166.4492-.0832 1.3726-.3327 1.6304-.2662.2662-1.1313 1.0315-1.5223 1.3726-.1165.0998-.1747.2495-.1664.3993.025.549.0499 1.88-.3577 2.1462-.5074.341-3.4022.5074-3.7433 0l-2.9364-2.9115c-1.0898-.6405-2.3542-1.0066-3.7018-1.0066-2.1961 0-4.1676.965-5.5068 2.4956-.183.1747-.3411.366-.4576.5656-.0083.0084-.0083.0167-.0166.025-.8485 1.1979-1.3476 2.6536-1.3476 4.2258 0 4.0428 3.2775 7.3203 7.3203 7.3203 10.7226 0 19.4071-8.6928 19.4071-19.4071 0-10.7142-8.6845-19.41542-19.3988-19.41542-7.2454 0-13.5592 3.96794-16.88657 9.84912-.00832 0-.00832 0 0 0z" fill="url(#c)" fill-opacity=".4"/></svg>

<svg width="48" height="48" viewBox="0 0 48 48" fill="none" xmlns="http://www.w3.org/2000/svg">
<circle cx="23.994" cy="24.015" r="22.9091" fill="#131621" stroke="url(#paint0_linear_5347_4279)" stroke-width="1.79478"/>
<path d="M7.12343 14.4541C7.21493 14.4208 7.30643 14.3959 7.34803 14.3876C10.2179 13.7637 15.6582 12.7322 18.9357 13.0649C19.2019 13.0899 19.4432 12.9069 19.4847 12.649C19.6012 11.9086 19.909 10.7357 20.092 10.5694C20.2168 10.4612 20.4331 10.2283 20.9405 10.5694C21.3731 10.8605 23.2614 12.7239 23.8353 13.2978C23.9435 13.406 24.0849 13.4559 24.2346 13.4392C24.6589 13.3977 25.5822 13.3394 26.2227 13.4642C27.0712 13.6306 32.8609 16.8665 34.0588 18.2307C34.9655 19.2705 34.9821 20.1024 34.9406 20.4518C34.9239 20.5682 34.9489 20.6847 35.0154 20.7845L37.694 25.0436C37.7689 25.16 37.7938 25.3015 37.7522 25.4346C37.669 25.7673 37.4527 26.3829 36.9703 26.7822C36.8538 26.8737 36.7789 27.0151 36.7706 27.1648C36.754 27.614 36.6874 28.5374 36.4379 28.7952C36.1717 29.0614 35.3066 29.8267 34.9156 30.1678C34.7991 30.2676 34.7409 30.4173 34.7492 30.5671C34.7742 31.1161 34.7991 32.4471 34.3915 32.7133C33.8841 33.0543 30.9893 33.2207 30.6482 32.7133L27.7118 29.8018C26.622 29.1613 25.3576 28.7952 24.01 28.7952C21.8139 28.7952 19.8424 29.7602 18.5032 31.2908C18.3202 31.4655 18.1621 31.6568 18.0456 31.8564C18.0373 31.8648 18.0373 31.8731 18.029 31.8814C17.1805 33.0793 16.6814 34.535 16.6814 36.1072C16.6814 40.15 19.9589 43.4275 24.0017 43.4275C34.7243 43.4275 43.4088 34.7347 43.4088 24.0204C43.4088 13.3062 34.7243 4.60498 24.01 4.60498C16.7646 4.60498 10.4508 8.57292 7.12343 14.4541C7.11511 14.4541 7.11511 14.4541 7.12343 14.4541Z" fill="url(#paint1_linear_5347_4279)"/>
<path d="M7.12343 14.4541C7.21493 14.4208 7.30643 14.3959 7.34803 14.3876C10.2179 13.7637 15.6582 12.7322 18.9357 13.0649C19.2019 13.0899 19.4432 12.9069 19.4847 12.649C19.6012 11.9086 19.909 10.7357 20.092 10.5694C20.2168 10.4612 20.4331 10.2283 20.9405 10.5694C21.3731 10.8605 23.2614 12.7239 23.8353 13.2978C23.9435 13.406 24.0849 13.4559 24.2346 13.4392C24.6589 13.3977 25.5822 13.3394 26.2227 13.4642C27.0712 13.6306 32.8609 16.8665 34.0588 18.2307C34.9655 19.2705 34.9821 20.1024 34.9406 20.4518C34.9239 20.5682 34.9489 20.6847 35.0154 20.7845L37.694 25.0436C37.7689 25.16 37.7938 25.3015 37.7522 25.4346C37.669 25.7673 37.4527 26.3829 36.9703 26.7822C36.8538 26.8737 36.7789 27.0151 36.7706 27.1648C36.754 27.614 36.6874 28.5374 36.4379 28.7952C36.1717 29.0614 35.3066 29.8267 34.9156 30.1678C34.7991 30.2676 34.7409 30.4173 34.7492 30.5671C34.7742 31.1161 34.7991 32.4471 34.3915 32.7133C33.8841 33.0543 30.9893 33.2207 30.6482 32.7133L27.7118 29.8018C26.622 29.1613 25.3576 28.7952 24.01 28.7952C21.8139 28.7952 19.8424 29.7602 18.5032 31.2908C18.3202 31.4655 18.1621 31.6568 18.0456 31.8564C18.0373 31.8648 18.0373 31.8731 18.029 31.8814C17.1805 33.0793 16.6814 34.535 16.6814 36.1072C16.6814 40.15 19.9589 43.4275 24.0017 43.4275C34.7243 43.4275 43.4088 34.7347 43.4088 24.0204C43.4088 13.3062 34.7243 4.60498 24.01 4.60498C16.7646 4.60498 10.4508 8.57292 7.12343 14.4541C7.11511 14.4541 7.11511 14.4541 7.12343 14.4541Z" fill="url(#paint2_linear_5347_4279)" fill-opacity="0.4"/>
<defs>
<linearGradient id="paint0_linear_5347_4279" x1="23.1235" y1="0.208486" x2="21.8918" y2="47.7671" gradientUnits="userSpaceOnUse">
<stop stop-color="#FFDFBD"/>
<stop offset="1" stop-color="#D0A7A8"/>
</linearGradient>
<linearGradient id="paint1_linear_5347_4279" x1="191.206" y1="74.7294" x2="25.263" y2="43.4275" gradientUnits="userSpaceOnUse">
<stop stop-color="#7484A0"/>
<stop offset="1" stop-color="#5F6C85"/>
</linearGradient>
<linearGradient id="paint2_linear_5347_4279" x1="25.2629" y1="-9.28079" x2="25.263" y2="43.4275" gradientUnits="userSpaceOnUse">
<stop stop-color="white"/>
<stop offset="1" stop-color="white" stop-opacity="0"/>
</linearGradient>
</defs>
</svg>
